teeny/solid/hospital.svg

<svg width="15" height="15" viewBox="0 0 15 15" fill="none" xmlns="http://www.w3.org/2000/svg">
<path fill-rule="evenodd" clip-rule="evenodd" d="M7.72361 0.0527864C7.58285 -0.0175955 7.41716 -0.0175955 7.2764 0.0527864L1.28617 3.0479C1.117 3.12806 1 3.30037 1 3.5V14H0V15H5V10H10V15H15V14H14V3.5C14 3.30044 13.8831 3.12818 13.714 3.04799L7.72361 0.0527864ZM7 5V3H8V5H10V6H8V8H7V6H5V5H7Z" fill="black"/>
<path d="M9 15V11H6V15H9Z" fill="black"/>
</svg>

<svg viewBox="0 0 15 15" xmlns="http://www.w3.org/2000/svg"><path fill-rule="evenodd" d="M7.72.05c-.15-.08-.31-.08-.45 0l-6 2.99c-.17.08-.29.25-.29.45v10.5h-1v1h5v-5h5v5h5v-1h-1V3.49c0-.2-.12-.38-.29-.46l-6-3Zm-.73 4.94v-2h1v2h2v1h-2v2h-1v-2h-2v-1h2Z"/><path d="M9 15v-4H6v4h3Z"/></svg>
